dist/img/svg/ic_pin.svg

<svg width="21" height="26" viewBox="0 0 21 26"   xmlns="http://www.w3.org/2000/svg">
<path d="M10.2378 25.2265C9.73404 25.2265 9.25644 25.0674 8.85682 24.7664C4.67278 21.6896 1.7456 17.2091 0.621968 12.1555C0.614302 12.1212 0.609155 12.0872 0.606471 12.0533C0.471658 11.3986 0.40332 10.7255 0.40332 10.0513C0.403266 4.63385 4.81066 0.226501 10.2281 0.226501C15.6462 0.226501 20.0544 4.63385 20.0544 10.0513C20.0544 10.7707 19.9772 11.4834 19.8248 12.171C19.8221 12.2043 19.817 12.2375 19.8095 12.2702C18.6845 17.2049 15.822 21.6042 11.7496 24.6578L11.446 24.8801C11.4242 24.896 11.4014 24.9108 11.3779 24.9241C11.0314 25.122 10.637 25.2265 10.2378 25.2265ZM2.07781 11.9273C3.13918 16.5964 5.85577 20.7341 9.73503 23.5867C9.9943 23.7822 10.3393 23.8075 10.6179 23.6638L10.872 23.4777C14.6354 20.656 17.2911 16.5958 18.3536 12.0389C18.3565 12.0052 18.3618 11.9717 18.3695 11.9384C18.5118 11.3289 18.5838 10.6939 18.5838 10.0513C18.5838 5.44481 14.8355 1.69713 10.2281 1.69713C5.62157 1.69713 1.87389 5.44481 1.87389 10.0513C1.87389 10.6543 1.93785 11.2558 2.06423 11.8386C2.07053 11.8683 2.07513 11.8977 2.07781 11.9273Z" />
<path d="M10.2282 14.2551C7.90974 14.2551 6.02366 12.3692 6.02366 10.0511C6.02366 7.73242 7.90979 5.84591 10.2282 5.84591C12.5473 5.84591 14.434 7.73242 14.434 10.0511C14.434 12.3692 12.5473 14.2551 10.2282 14.2551ZM10.2282 7.31654C8.7207 7.31654 7.49424 8.54317 7.49424 10.0511C7.49424 11.5582 8.7207 12.7845 10.2282 12.7845C11.7364 12.7845 12.9634 11.5582 12.9634 10.0511C12.9634 8.54317 11.7364 7.31654 10.2282 7.31654Z"  />
</svg>

<svg width="21" height="26" viewBox="0 0 21 26" xmlns="http://www.w3.org/2000/svg"><path d="M10.238 25.227c-.504 0-.982-.16-1.381-.46A21.438 21.438 0 01.622 12.155a.733.733 0 01-.016-.103 9.943 9.943 0 01-.203-2.002c0-5.417 4.408-9.824 9.825-9.824 5.418 0 9.826 4.407 9.826 9.824 0 .72-.077 1.432-.23 2.12a.695.695 0 01-.015.1 21.478 21.478 0 01-8.06 12.387l-.303.222a.706.706 0 01-.068.044 2.304 2.304 0 01-1.14.303zm-8.16-13.3a19.975 19.975 0 007.657 11.66c.26.195.604.22.883.077l.254-.186a20 20 0 007.482-11.44.72.72 0 01.015-.1c.143-.61.215-1.244.215-1.887 0-4.606-3.748-8.354-8.356-8.354-4.606 0-8.354 3.748-8.354 8.354 0 .603.064 1.205.19 1.788.007.03.011.059.014.088z"/><path d="M10.228 14.255a4.209 4.209 0 01-4.204-4.204 4.21 4.21 0 014.204-4.205 4.21 4.21 0 014.206 4.205 4.21 4.21 0 01-4.206 4.204zm0-6.938a2.737 2.737 0 00-2.734 2.734 2.737 2.737 0 002.734 2.733 2.737 2.737 0 002.735-2.733 2.738 2.738 0 00-2.735-2.734z"/></svg>
